X: 43190
T: Wishbone, The
R: reel
M: 4/4
K: Gmajor
B2 AG EDB,E|D2 GD E/F/G Ac|BGAG EDB,D|EAAG ABcd|
B2 AG EDB,E|D2 GD E/F/G Ac|BGAG EDB,D|1 EAAG ABdc:|2 EAAG ABce||
d~B3 G~B3|d~B3 ~c3e|d~B3 G~B3|c2 Bc ABce|
d~B3 G~B3|dBGB cBce|d2 e/f/g fgag|fdeg fdce|
d~B3 G~B3|d~B3 cBce|d~B3 gBdB|c2 Bc ABce|
dBdg eceg|fgaf ~g3a|bgag ed B/c/d|eaag fdcA||

